X:0297
T:Tail Toddle
M:C
L:1/8
Q:1/2=100
I: :: :: || ::
Z:Jack Campin * www.campin.me.uk * 2009
K:G
G/G/G BG c2GE|G/G/G BG A2FD|G/G/G BG  cABG        |A/B/c B/c/d A2 FD:|
c2    GE EcGE|c2    GE DAFD|c2    GE (d/c/B/A/) BG|A/B/c B/c/d A2 FD:|
G/G/G BG cABE|G/G/G BG ADFD|G/G/G BG  cABG        |A/B/c B/c/d c2 AF:|
c2    Ec EcGE|c2    Ec DAFD|c2    Ec (d/c/B/A/) BG|A/B/c B/c/d A2 FD:|

